X:18768
T:Wild Swans at Coole
C:Ed Reavy (1898-1988)
R:reel
Z:id:hn-reel-115
M:C|
K:Dmix
dc|Addc dcAB|cBcG E^FGE|DA,~A,2 =FA,~A,2|=FEDB, C2CB,|
A,=FFE FEDC|_B,CDE =FGAc|de^fg agfa|ge^ce d3c||
de^ce dcdA|=c2cG E^FGE|DA,~A,2 =FA,~A,2|=FEDB, C2CB,|
A,=FFE FEDC|_B,CDE =FGA=f|ecde dcAG|cAGE D3A||
|:d2Ad ^fgaf|ec~c2 acec|d2Ad ^fgaf|ea^ce d3^f|
~a3b ag (3^fga|1 ge^cA GAE^C|A,^CE^c e^fge|
^fge^c d3A:|2 g^fed ^cdeA|^c2cd e^fge|^cAGE D2||


